; generated by PrusaSlicer 2.5.0+win64 on 2023-01-21 at 14:16:58 UTC


;
;
; 

; external perimeters extrusion width = 0.60mm
; perimeters extrusion width = 0.50mm
; infill extrusion width = 0.50mm
; solid infill extrusion width = 0.50mm
; top infill extrusion width = 0.45mm
; support material extrusion width = 0.38mm
; first layer extrusion width = 0.42mm

M73 P0 R146
M73 Q0 S155
M201 X1000 Y1000 Z200 E5000 ; sets maximum accelerations, mm/sec^2
M203 X200 Y200 Z12 E120 ; sets maximum feedrates, mm / sec
M204 P1250 R1250 T1250 ; sets acceleration (P, T) and retract acceleration (R), mm/sec^2
M205 X8.00 Y8.00 Z0.40 E4.50 ; sets the jerk limits, mm/sec
M205 S0 T0 ; sets the minimum extruding and travel feed rate, mm/sec
M107
;TYPE:Custom
M862.3 P "MK3S" ; printer model check
M862.1 P0.4 ; nozzle diameter check
M115 U3.11.0 ; tell printer latest fw version
G90 ; use absolute coordinates
M83 ; extruder relative mode
M104 S215 ; set extruder temp
M140 S60 ; set bed temp
M190 S60 ; wait for bed temp
M109 S215 ; wait for extruder temp
G28 W ; home all without mesh bed level
G80 ; mesh bed leveling

G1 Z0.2 F720
G1 Y-3 F1000 ; go outside print area
G92 E0
G1 X60 E9 F1000 ; intro line
G1 X100 E12.5 F1000 ; intro line

G92 E0
M221 S95

; Don't change E values below. Excessive value can damage the printer.

M907 E538 ; set extruder motor current
G21 ; set units to millimeters
G90 ; use absolute coordinates
M83 ; use relative distances for extrusion
M900 K0.05 ; Filament gcode LA 1.5
M900 K30 ; Filament gcode LA 1.0
M107
;LAYER_CHANGE
;Z:0.2
;HEIGHT:0.2
;BEFORE_LAYER_CHANGE
G92 E0.0
;0.2


G1 E-.8 F2100
G1 Z.4 F720
;AFTER_LAYER_CHANGE
;0.2
G1 X25.143 Y92.078 F10800
G1 Z.2 F720
G1 E.8 F2100
M204 S800
;TYPE:Skirt/Brim
;WIDTH:0.42
G1 F1200
G1 X27.825 Y91.372 E.08699
G1 X189.026 Y86.661 E5.05649
G1 X218.257 Y86.659 E.91651
G1 X220.427 Y87.055 E.06916
G1 X223.059 Y88.978 E.10223
G1 X226.798 Y93.689 E.18857
G1 X227.836 Y95.635 E.06916
G1 X228.127 Y97.501 E.05919
G1 X228.127 Y100.505 E.09421
G1 X227.73 Y102.675 E.06916
G1 X226.949 Y104.118 E.05144
G1 X223.211 Y109.245 E.19895
G1 X216.858 Y116.538 E.30328
G1 X215.13 Y117.909 E.06916
G1 X212.245 Y118.631 E.09325
G1 X34.24 Y118.631 E5.5812
G1 X32.07 Y118.234 E.06916
G1 X30.182 Y117.095 E.06916
G1 X28.8 Y115.328 E.07033
G1 X22.565 Y103.334 E.42385
G1 X21.873 Y100.505 E.09129
G1 X21.873 Y97.501 E.09421
G1 X22.27 Y95.331 E.06916
G1 X23.409 Y93.442 E.06916
G1 X25.095 Y92.115 E.06728
M204 S1000
G1 X25.336 Y92.441 F10800
M204 S800
G1 F1200
G1 X25.499 Y92.321 E.00634
G1 X27.836 Y91.749 E.07546
G1 X189.037 Y87.038 E5.05649
G1 X218.257 Y87.036 E.91616
G1 X220.356 Y87.432 E.06698
G1 X222.764 Y89.213 E.0939
G1 X226.503 Y93.924 E.18857
G1 X227.497 Y95.814 E.06698
G1 X227.75 Y97.501 E.05346
G1 X227.75 Y100.505 E.09421
G1 X227.353 Y102.604 E.06698
G1 X226.645 Y103.896 E.04618
G1 X222.906 Y109.023 E.19895
G1 X216.574 Y116.29 E.30222
G1 X214.893 Y117.608 E.06698
M73 Q0 S154
G1 X212.245 Y118.254 E.08547
G1 X34.24 Y118.254 E5.5812
G1 X32.141 Y117.857 E.06698
G1 X30.331 Y116.722 E.06698
G1 X29.135 Y115.154 E.06185
G1 X22.899 Y103.16 E.42385
G1 X22.25 Y100.505 E.08567
G1 X22.25 Y97.501 E.09421
G1 X22.647 Y95.402 E.06698
G1 X23.782 Y93.592 E.06698
G1 X25.288 Y92.477 E.05876
M204 S1000
G1 X25.516 Y92.806 F10800
M204 S800
G1 F1200
G1 X25.852 Y92.573 E.01282
G1 X27.847 Y92.126 E.06412
G1 X189.048 Y87.415 E5.05649
G1 X218.257 Y87.413 E.91582
M73 P0 R145
G1 X220.283 Y87.809 E.06473
G1 X222.469 Y89.447 E.08565
G1 X226.207 Y94.158 E.18857
G1 X227.156 Y95.991 E.06473
G1 X227.373 Y97.501 E.04781
G1 X227.373 Y100.505 E.09421
G1 X226.976 Y102.531 E.06473
G1 X226.34 Y103.674 E.041
G1 X222.601 Y108.8 E.19895
G1 X216.29 Y116.041 E.30117
G1 X214.657 Y117.305 E.06473
G1 X212.245 Y117.876 E.07775
G1 X34.24 Y117.876 E5.5812
G1 X32.214 Y117.48 E.06473
G1 X30.487 Y116.35 E.06473
G1 X29.469 Y114.98 E.05351
G1 X23.234 Y102.986 E.42385
G1 X22.627 Y100.505 E.08006
G1 X22.627 Y97.501 E.09421
G1 X23.024 Y95.475 E.06473
G1 X24.154 Y93.747 E.06473
G1 X25.466 Y92.84 E.05002
M204 S1000
; printing object doubleFitTest.stl id:0 copy 0
;WIPE_START
G1 F8640
G1 X25.852 Y92.573 E-.1083
G1 X27.847 Y92.126 E-.47216
G1 X28.625 Y92.103 E-.17954
;WIPE_END
G1 E-.04 F2100
G1 Z.6 F720
G1 X218.257 Y96.931 F10800
G1 Z.2 F720
G1 E.8 F2100
M204 S800
;TYPE:Support material
G1 F1200
G1 X189.205 Y96.931 E.91089
G1 X189.205 Y92.79 E.12983
G1 X218.257 Y92.79 E.91089
G1 X218.257 Y96.874 E.12806
M204 S1000
G1 X217.594 Y96.761 F10800
M204 S800
G1 F1200
G1 X217.594 Y93.129 E.11387
G1 X217.175 Y93.129 E.01314
G1 X217.175 Y96.591 E.10855
G1 X216.756 Y96.591 E.01314
G1 X216.756 Y93.129 E.10855
G1 X216.337 Y93.129 E.01314
G1 X216.337 Y96.591 E.10855
G1 X215.918 Y96.591 E.01314
G1 X215.918 Y93.129 E.10855
G1 X215.499 Y93.129 E.01314
G1 X215.499 Y96.591 E.10855
G1 X215.08 Y96.591 E.01314
G1 X215.08 Y93.129 E.10855
G1 X214.661 Y93.129 E.01314
G1 X214.661 Y96.591 E.10855
G1 X214.242 Y96.591 E.01314
G1 X214.242 Y93.129 E.10855
G1 X213.823 Y93.129 E.01314
G1 X213.823 Y96.591 E.10855
G1 X213.404 Y96.591 E.01314
G1 X213.404 Y93.129 E.10855
G1 X212.985 Y93.129 E.01314
G1 X212.985 Y96.591 E.10855
G1 X212.566 Y96.591 E.01314
G1 X212.566 Y93.129 E.10855
G1 X212.147 Y93.129 E.01314
G1 X212.147 Y96.591 E.10855
G1 X211.728 Y96.591 E.01314
G1 X211.728 Y93.129 E.10855
G1 X211.309 Y93.129 E.01314
G1 X211.309 Y96.591 E.10855
G1 X210.89 Y96.591 E.01314
G1 X210.89 Y93.129 E.10855
G1 X210.471 Y93.129 E.01314
G1 X210.471 Y96.591 E.10855
G1 X210.052 Y96.591 E.01314
G1 X210.052 Y93.129 E.10855
G1 X209.633 Y93.129 E.01314
G1 X209.633 Y96.591 E.10855
G1 X209.214 Y96.591 E.01314
G1 X209.214 Y93.129 E.10855
G1 X208.795 Y93.129 E.01314
G1 X208.795 Y96.591 E.10855
G1 X208.376 Y96.591 E.01314
G1 X208.376 Y93.129 E.10855
G1 X207.957 Y93.129 E.01314
G1 X207.957 Y96.591 E.10855
G1 X207.538 Y96.591 E.01314
G1 X207.538 Y93.129 E.10855
G1 X207.119 Y93.129 E.01314
G1 X207.119 Y96.591 E.10855
G1 X206.701 Y96.591 E.01314
G1 X206.701 Y93.129 E.10855
G1 X206.282 Y93.129 E.01314
G1 X206.282 Y96.591 E.10855
G1 X205.863 Y96.591 E.01314
G1 X205.863 Y93.129 E.10855
G1 X205.444 Y93.129 E.01314
G1 X205.444 Y96.591 E.10855
G1 X205.025 Y96.591 E.01314
G1 X205.025 Y93.129 E.10855
G1 X204.606 Y93.129 E.01314
G1 X204.606 Y96.591 E.10855
G1 X204.187 Y96.591 E.01314
G1 X204.187 Y93.129 E.10855
G1 X203.768 Y93.129 E.01314
G1 X203.768 Y96.591 E.10855
G1 X203.349 Y96.591 E.01314
G1 X203.349 Y93.129 E.10855
G1 X202.93 Y93.129 E.01314
G1 X202.93 Y96.591 E.10855
G1 X202.511 Y96.591 E.01314
G1 X202.511 Y93.129 E.10855
G1 X202.092 Y93.129 E.01314
G1 X202.092 Y96.591 E.10855
G1 X201.673 Y96.591 E.01314
G1 X201.673 Y93.129 E.10855
G1 X201.254 Y93.129 E.01314
G1 X201.254 Y96.591 E.10855
G1 X200.835 Y96.591 E.01314
G1 X200.835 Y93.129 E.10855
G1 X200.416 Y93.129 E.01314
G1 X200.416 Y96.591 E.10855
G1 X199.997 Y96.591 E.01314
G1 X199.997 Y93.129 E.10855
G1 X199.578 Y93.129 E.01314
G1 X199.578 Y96.591 E.10855
G1 X199.159 Y96.591 E.01314
M73 P1 R145
G1 X199.159 Y93.129 E.10855
G1 X198.74 Y93.129 E.01314
G1 X198.74 Y96.591 E.10855
G1 X198.321 Y96.591 E.01314
G1 X198.321 Y93.129 E.10855
G1 X197.902 Y93.129 E.01314
G1 X197.902 Y96.591 E.10855
G1 X197.483 Y96.591 E.01314
G1 X197.483 Y93.129 E.10855
G1 X197.064 Y93.129 E.01314
G1 X197.064 Y96.591 E.10855
G1 X196.645 Y96.591 E.01314
G1 X196.645 Y93.129 E.10855
G1 X196.226 Y93.129 E.01314
G1 X196.226 Y96.591 E.10855
G1 X195.807 Y96.591 E.01314
G1 X195.807 Y93.129 E.10855
G1 X195.388 Y93.129 E.01314
G1 X195.388 Y96.591 E.10855
G1 X194.969 Y96.591 E.01314
G1 X194.969 Y93.129 E.10855
G1 X194.55 Y93.129 E.01314
G1 X194.55 Y96.591 E.10855
G1 X194.131 Y96.591 E.01314
G1 X194.131 Y93.129 E.10855
G1 X193.712 Y93.129 E.01314
G1 X193.712 Y96.591 E.10855
G1 X193.293 Y96.591 E.01314
G1 X193.293 Y93.129 E.10855
G1 X192.874 Y93.129 E.01314
G1 X192.874 Y96.591 E.10855
G1 X192.455 Y96.591 E.01314
G1 X192.455 Y93.129 E.10855
G1 X192.036 Y93.129 E.01314
G1 X192.036 Y96.591 E.10855
G1 X191.617 Y96.591 E.01314
G1 X191.617 Y93.129 E.10855
G1 X191.198 Y93.129 E.01314
G1 X191.198 Y96.591 E.10855
G1 X190.779 Y96.591 E.01314
M73 Q1 S154
G1 X190.779 Y93.129 E.10855
G1 X190.36 Y93.129 E.01314
G1 X190.36 Y96.591 E.10855
G1 X189.941 Y96.591 E.01314
G1 X189.941 Y92.959 E.11387
M204 S1000
;WIPE_START
G1 F8640
G1 X189.941 Y96.251 E-.76
;WIPE_END
G1 E-.04 F2100
G1 Z.6 F720
G1 X218.257 Y105.632 F10800
G1 Z.2 F720
G1 E.8 F2100
M204 S800
G1 F1200
G1 X189.205 Y105.632 E.91089
G1 X189.205 Y101.075 E.14287
G1 X218.257 Y101.075 E.91089
G1 X218.257 Y105.576 E.1411
M204 S1000
G1 X217.594 Y105.462 F10800
M204 S800
G1 F1200
G1 X217.594 Y101.415 E.12691
G1 X217.175 Y101.415 E.01314
G1 X217.175 Y105.293 E.12159
G1 X216.756 Y105.293 E.01314
G1 X216.756 Y101.415 E.12159
G1 X216.337 Y101.415 E.01314
G1 X216.337 Y105.293 E.12159
G1 X215.918 Y105.293 E.01314
G1 X215.918 Y101.415 E.12159
G1 X215.499 Y101.415 E.01314
G1 X215.499 Y105.293 E.12159
G1 X215.08 Y105.293 E.01314
G1 X215.08 Y101.415 E.12159
G1 X214.661 Y101.415 E.01314
G1 X214.661 Y105.293 E.12159
G1 X214.242 Y105.293 E.01314
G1 X214.242 Y101.415 E.12159
G1 X213.823 Y101.415 E.01314
G1 X213.823 Y105.293 E.12159
G1 X213.404 Y105.293 E.01314
G1 X213.404 Y101.415 E.12159
G1 X212.985 Y101.415 E.01314
G1 X212.985 Y105.293 E.12159
G1 X212.566 Y105.293 E.01314
G1 X212.566 Y101.415 E.12159
G1 X212.147 Y101.415 E.01314
M73 Q1 S153
G1 X212.147 Y105.293 E.12159
G1 X211.728 Y105.293 E.01314
G1 X211.728 Y101.415 E.12159
G1 X211.309 Y101.415 E.01314
G1 X211.309 Y105.293 E.12159
G1 X210.89 Y105.293 E.01314
G1 X210.89 Y101.415 E.12159
G1 X210.471 Y101.415 E.01314
G1 X210.471 Y105.293 E.12159
G1 X210.052 Y105.293 E.01314
G1 X210.052 Y101.415 E.12159
G1 X209.633 Y101.415 E.01314
G1 X209.633 Y105.293 E.12159
G1 X209.214 Y105.293 E.01314
G1 X209.214 Y101.415 E.12159
G1 X208.795 Y101.415 E.01314
G1 X208.795 Y105.293 E.12159
G1 X208.376 Y105.293 E.01314
G1 X208.376 Y101.415 E.12159
G1 X207.957 Y101.415 E.01314
G1 X207.957 Y105.293 E.12159
G1 X207.538 Y105.293 E.01314
G1 X207.538 Y101.415 E.12159
G1 X207.119 Y101.415 E.01314
G1 X207.119 Y105.293 E.12159
G1 X206.701 Y105.293 E.01314
G1 X206.701 Y101.415 E.12159
G1 X206.282 Y101.415 E.01314
G1 X206.282 Y105.293 E.12159
G1 X205.863 Y105.293 E.01314
G1 X205.863 Y101.415 E.12159
G1 X205.444 Y101.415 E.01314
G1 X205.444 Y105.293 E.12159
G1 X205.025 Y105.293 E.01314
G1 X205.025 Y101.415 E.12159
G1 X204.606 Y101.415 E.01314
G1 X204.606 Y105.293 E.12159
G1 X204.187 Y105.293 E.01314
G1 X204.187 Y101.415 E.12159
G1 X203.768 Y101.415 E.01314
G1 X203.768 Y105.293 E.12159
G1 X203.349 Y105.293 E.01314
G1 X203.349 Y101.415 E.12159
G1 X202.93 Y101.415 E.01314
G1 X202.93 Y105.293 E.12159
G1 X202.511 Y105.293 E.01314
G1 X202.511 Y101.415 E.12159
G1 X202.092 Y101.415 E.01314
G1 X202.092 Y105.293 E.12159
G1 X201.673 Y105.293 E.01314
G1 X201.673 Y101.415 E.12159
G1 X201.254 Y101.415 E.01314
G1 X201.254 Y105.293 E.12159
G1 X200.835 Y105.293 E.01314
G1 X200.835 Y101.415 E.12159
G1 X200.416 Y101.415 E.01314
G1 X200.416 Y105.293 E.12159
G1 X199.997 Y105.293 E.01314
G1 X199.997 Y101.415 E.12159
G1 X199.578 Y101.415 E.01314
G1 X199.578 Y105.293 E.12159
G1 X199.159 Y105.293 E.01314
G1 X199.159 Y101.415 E.12159
G1 X198.74 Y101.415 E.01314
G1 X198.74 Y105.293 E.12159
G1 X198.321 Y105.293 E.01314
G1 X198.321 Y101.415 E.12159
G1 X197.902 Y101.415 E.01314
G1 X197.902 Y105.293 E.12159
G1 X197.483 Y105.293 E.01314
G1 X197.483 Y101.415 E.12159
G1 X197.064 Y101.415 E.01314
G1 X197.064 Y105.293 E.12159
G1 X196.645 Y105.293 E.01314
G1 X196.645 Y101.415 E.12159
G1 X196.226 Y101.415 E.01314
G1 X196.226 Y105.293 E.12159
G1 X195.807 Y105.293 E.01314
G1 X195.807 Y101.415 E.12159
G1 X195.388 Y101.415 E.01314
G1 X195.388 Y105.293 E.12159
G1 X194.969 Y105.293 E.01314
G1 X194.969 Y101.415 E.12159
G1 X194.55 Y101.415 E.01314
G1 X194.55 Y105.293 E.12159
G1 X194.131 Y105.293 E.01314
G1 X194.131 Y101.415 E.12159
G1 X193.712 Y101.415 E.01314
G1 X193.712 Y105.293 E.12159
G1 X193.293 Y105.293 E.01314
G1 X193.293 Y101.415 E.12159
G1 X192.874 Y101.415 E.01314
G1 X192.874 Y105.293 E.12159
G1 X192.455 Y105.293 E.01314
G1 X192.455 Y101.415 E.12159
G1 X192.036 Y101.415 E.01314
G1 X192.036 Y105.293 E.12159
G1 X191.617 Y105.293 E.01314
G1 X191.617 Y101.415 E.12159
G1 X191.198 Y101.415 E.01314
G1 X191.198 Y105.293 E.12159
G1 X190.779 Y105.293 E.01314
G1 X190.779 Y101.415 E.12159
G1 X190.36 Y101.415 E.01314
G1 X190.36 Y105.293 E.12159
G1 X189.941 Y105.293 E.01314
G1 X189.941 Y101.245 E.12691
M204 S1000
;WIPE_START
G1 F8640
G1 X189.941 Y104.537 E-.76
;WIPE_END
G1 E-.04 F2100
G1 Z.6 F720
G1 X211.457 Y110.288 F10800
G1 Z.2 F720
G1 E.8 F2100
M204 S800
;TYPE:Perimeter
;WIDTH:0.419999
G1 F1200
G1 X211.457 Y111.712 E.04464
G1 X35.027 Y111.712 E5.53184
G1 X35.027 Y110.288 E.04464
M73 P1 R144
G1 X211.397 Y110.288 E5.52996
M204 S1000
G1 X211.835 Y109.911 F10800
M204 S800
;TYPE:External perimeter
G1 F1200
G1 X211.835 Y112.089 E.06829
G1 X34.65 Y112.089 E5.55548
G1 X34.65 Y109.911 E.06829
G1 X211.775 Y109.911 E5.5536
M204 S1000
G1 X211.636 Y110.259 F10800
;WIPE_START
G1 F8640
G1 X211.835 Y112.089 E-.50311
G1 X210.722 Y112.089 E-.25689
;WIPE_END
G1 E-.04 F2100
G1 Z.6 F720
G1 X211.344 Y111.166 F10800
G1 Z.2 F720
G1 E.8 F2100
M204 S800
;TYPE:Solid infill
;WIDTH:0.420917
G1 F1200
G1 X210.75 Y110.571 E.02643
G1 X210.215 Y110.571 E.0168
G1 X211.074 Y111.43 E.03815
G1 X210.539 Y111.43 E.0168
G1 X209.681 Y110.571 E.03815
G1 X209.146 Y110.571 E.0168
G1 X210.004 Y111.43 E.03815
G1 X209.47 Y111.43 E.0168
G1 X208.612 Y110.571 E.03815
G1 X208.077 Y110.571 E.0168
G1 X208.935 Y111.43 E.03815
G1 X208.401 Y111.43 E.0168
G1 X207.542 Y110.571 E.03815
G1 X207.008 Y110.571 E.0168
G1 X207.866 Y111.43 E.03815
G1 X207.332 Y111.43 E.0168
G1 X206.473 Y110.571 E.03815
G1 X205.939 Y110.571 E.0168
G1 X206.797 Y111.43 E.03815
G1 X206.262 Y111.43 E.0168
G1 X205.404 Y110.571 E.03815
G1 X204.87 Y110.571 E.0168
G1 X205.728 Y111.43 E.03815
G1 X205.193 Y111.43 E.0168
G1 X204.335 Y110.571 E.03815
G1 X203.8 Y110.571 E.0168
G1 X204.659 Y111.43 E.03815
G1 X204.124 Y111.43 E.0168
G1 X203.266 Y110.571 E.03815
G1 X202.731 Y110.571 E.0168
G1 X203.59 Y111.43 E.03815
G1 X203.055 Y111.43 E.0168
G1 X202.197 Y110.571 E.03815
G1 X201.662 Y110.571 E.0168
G1 X202.52 Y111.43 E.03815
G1 X201.986 Y111.43 E.0168
G1 X201.128 Y110.571 E.03815
G1 X200.593 Y110.571 E.0168
G1 X201.451 Y111.43 E.03815
G1 X200.917 Y111.43 E.0168
G1 X200.058 Y110.571 E.03815
G1 X199.524 Y110.571 E.0168
G1 X200.382 Y111.43 E.03815
G1 X199.848 Y111.43 E.0168
G1 X198.989 Y110.571 E.03815
G1 X198.455 Y110.571 E.0168
G1 X199.313 Y111.43 E.03815
G1 X198.778 Y111.43 E.0168
G1 X197.92 Y110.571 E.03815
G1 X197.386 Y110.571 E.0168
G1 X198.244 Y111.43 E.03815
G1 X197.709 Y111.43 E.0168
G1 X196.851 Y110.571 E.03815
G1 X196.316 Y110.571 E.0168
G1 X197.175 Y111.43 E.03815
G1 X196.64 Y111.43 E.0168
G1 X195.782 Y110.571 E.03815
G1 X195.247 Y110.571 E.0168
G1 X196.106 Y111.43 E.03815
G1 X195.571 Y111.43 E.0168
G1 X194.713 Y110.571 E.03815
G1 X194.178 Y110.571 E.0168
G1 X195.036 Y111.43 E.03815
G1 X194.502 Y111.43 E.0168
G1 X193.644 Y110.571 E.03815
G1 X193.109 Y110.571 E.0168
G1 X193.967 Y111.43 E.03815
G1 X193.433 Y111.43 E.0168
G1 X192.574 Y110.571 E.03815
G1 X192.04 Y110.571 E.0168
G1 X192.898 Y111.43 E.03815
G1 X192.364 Y111.43 E.0168
G1 X191.505 Y110.571 E.03815
G1 X190.971 Y110.571 E.0168
G1 X191.829 Y111.43 E.03815
G1 X191.295 Y111.43 E.0168
G1 X190.436 Y110.571 E.03815
G1 X189.902 Y110.571 E.0168
G1 X190.76 Y111.43 E.03815
G1 X190.225 Y111.43 E.0168
G1 X189.367 Y110.571 E.03815
G1 X188.832 Y110.571 E.0168
G1 X189.691 Y111.43 E.03815
G1 X189.156 Y111.43 E.0168
G1 X188.298 Y110.571 E.03815
G1 X187.763 Y110.571 E.0168
G1 X188.622 Y111.43 E.03815
G1 X188.087 Y111.43 E.0168
G1 X187.229 Y110.571 E.03815
G1 X186.694 Y110.571 E.0168
G1 X187.553 Y111.43 E.03815
G1 X187.018 Y111.43 E.0168
G1 X186.16 Y110.571 E.03815
G1 X185.625 Y110.571 E.0168
G1 X186.483 Y111.43 E.03815
G1 X185.949 Y111.43 E.0168
G1 X185.091 Y110.571 E.03815
G1 X184.556 Y110.571 E.0168
G1 X185.414 Y111.43 E.03815
G1 X184.88 Y111.43 E.0168
